X:1
T:Title
%%score { 1 | 2 }
L:1/8
M:4/4
K:Bb
V:1 treble nm="Grand Piano"
V:2 bass 
V:1
 z4 z2[Q:1/4=100] [B,D]>[CE] | [DF]2 [DB]2 [Ge]2 [Fd]2 | [EG]2 [Ec]4 [Gc]>[GB] | A2 G2 F2 G2 | %4
[M:3/4] [DF]6 |[M:1/4] [B,D]>[CE] |[M:4/4] [DF]2 [DB]2 [Fd]2 [_Af]2 | [_Af]2 [Ge]4 [GB]>[^Fc] | %8
 d2 d2 c3 [DB] |[M:3/4] [DB]6 |[M:1/4] [DB]>[DG] |[M:4/4] [EB]>[EA] [EA]4 [Ec]>[Fd] | %12
 [Ec]>[DB] [DB]4 [DB][FA] | G2 G>G [GB]2 [Gc]2 | [^Fd]6 [Fd]>[Fd] | [Gd]>[Gc] G4 c>c | c>B F4 B>B | %17
 B2 [=EA]>[EG] F2 c2 |[M:3/4] [DB]6 |] %19
V:2
 z4 z2 [B,,F,]>[B,,F,] | [B,,B,]2 [B,,B,]2 [B,,B,]2 [B,,B,]2 | [E,B,]2 [E,G,]4 [E,E]>[E,E] | %3
 [F,EF]2 [F,CE]2 [F,A,E]2 [F,A,E]2 |[M:3/4] [B,,B,]6 |[M:1/4] [B,,F,]>[B,,F,] | %6
[M:4/4] [B,,B,]2 [B,,B,]2 [B,,B,]2 [D,B,]2 | [E,B,]2 [E,B,]4 [E,B,]>[E,B,] | %8
 [F,B,F]2 [F,B,F]2 [F,A,E]3 [B,,F,] |[M:3/4] [B,,F,]6 |[M:1/4] [B,,F,]>[B,,G,] | %11
[M:4/4] [C,G,]>[C,F,] [C,F,]4 [F,A,]>[F,A,] | [B,,B,]>[B,,B,] [B,,B,]4 [B,,B,][D,B,] | %13
 [E,B,E]2 [E,B,E]>[E,B,E] [E,B,]2 [E,G,]2 | [D,A,]6 [D,A,]>[D,C] | %15
 [E,B,]>[E,B,] [E,B,E]4 [E,G,E]>[E,G,E] | [F,D]>[F,D] [F,B,D]4 [F,DF]>[F,DF] | %17
 [G,D=E]2 [C,C]>[C,B,] [F,A,_E]2 [F,E]2 |[M:3/4] [B,,F,]6 |] %19

